!!!!SEGMENT: pl-sa--552-a-ix-32--013_anonim--polonez.krn
!!!cenid: 18xx:524
!!!COM: Anonim
!!!COM-rismID: pe30004985
!!!CDT:
!!!CNT:
!!!OTL: Polonez
!!!PDT:
!!!AGN: Secular; Polonaise
!!!SMS-siglum: PL-SA
!!!SMS-shelfmark: 552/A IX 32
!!!SMS-shelfwork: 013 W
!!!SMS-variant:
!!!SMS-altvar:
!!!NIFC-rismSourceID: 1001069505
!!!NIFC-rismChildID: 1001069505
!!!NIFC-islandoraID: none
!!!URL-pdf-islandora:
!!!URL-scan: https://bc.bdsandomierz.pl/dlibra/publication/1308/edition/1276/content @EN{Scan in the Sandomierz Diocese Digital Library} @PL{Skany w portalu Cyfrowa Biblioteka Diecezjalna w Sandomierzu}
!!!IIIF:
!!!ONB-nifc: Str. 7, s. 4-6
!!!AIN: 1 empty
!!!key:
**kern	**kern	**dynam
*part1	*part1	*part1
*staff2	*staff1	*
*Iempty	*Iempty	*
*I"	*I"	*
*I'keyb	*I'keyb	*
*clefF4	*clefG2	*
*k[]	*k[]	*
*C:	*C:	*
*M3/4	*M3/4	*
=1	=1	=1
.	8qff#X/	.
8eL 8c\	4.gg\	p
8G\J	.	.
*rep	*	*
8eL 8c\	.	.
8G\J	16ff#X\LL	.
.	16gg\JJ	.
*Xrep	*	*
*rep	*	*
8eL 8c\	16aa\LL	.
.	16gg\	.
8G\J	16ff#X\	.
.	16gg\JJ	.
*Xrep	*	*
=2	=2	=2
*rep	*	*
8eL 8c\	4ee\	.
8G\J	.	.
*Xrep	*	*
*rep	*	*
8eL 8c\	4cc\	.
8G\J	.	.
*Xrep	*	*
*rep	*	*
8eL 8c\	4r	.
8G\J	.	.
*Xrep	*	*
=3	=3	=3
.	8qcc#X/	.
8fL 8d\	8dd\	.
8G\J	4dd\	.
*rep	*	*
8fL 8d\	.	.
8G\J	(>16ee\LL	.
.	16dd\JJ)	.
*Xrep	*	*
*rep	*	*
8fL 8d\	8ccn\L	.
8G\J	8b\J	.
*Xrep	*	*
=4	=4	=4
8eL 8c\	8.cc\L	.
8G\J	.	.
.	16ee\Jk	.
*rep	*	*
8eL 8c\	4gg\	.
8G\J	.	.
*Xrep	*	*
*rep	*	*
8eL 8c\	4r	.
8G\J	.	.
*Xrep	*	*
=5:|!|:	=5:|!|:	=5:|!|:
.	8qff#X	.
16C\LL	8gg\	f
16G\	.	.
16E\	4gg\	.
16G\JJ	.	.
*rep	*	*
16C\LL	.	.
16G\	.	.
16E\	16ff#X\LL	.
16G\JJ	16gg\JJ	.
*Xrep	*	*
*rep	*	*
16C\LL	16aa\LL	.
16G\	16gg\	.
16E\	16ff#\	.
16G\JJ	16gg\JJ	.
*Xrep	*	*
=6	=6	=6
16D\LL	8ff\L	.
16G\	.	.
16F\	8dd\J	.
16G\JJ	.	.
*rep	*	*
16D\LL	4.ddd\	.
16G\	.	.
16F\	.	.
16G\JJ	.	.
*Xrep	*	*
*rep	*	*
16D\LL	.	.
16G\	.	.
16F\	8ff\	.
16G\JJ	.	.
*Xrep	*	*
=7	=7	=7
*2\right	*	*
*tremolo	*	*
8G 8E 8C\L	8eeL 8cc\	.
8G 8E 8C\	16gg\L	.
.	16ggT>\JJ	.
8G 8E 8C\	(>16gg\LL	.
.	16ccc\	.
8G 8E 8C\	16eee\	.
.	16ddd\JJ)	.
8G 8E 8C\	16ccc\LL	.
.	16bb\	.
8G 8E 8C\J	16aa\	.
.	16gg\JJ	.
=8	=8	=8
!LO:TX:a:t=P:problem=mixed beam	!	!
8G\L	16gg\LL	.
.	16ff\	.
8GG/J	16ee\	.
.	16dd\JJ	.
8r	4dd 4f/	.
!LO:N:vis=4	!	!
8GG/	.	.
4C\	4cc 4e/	.
!!LO:LB:g=original
=9:|!|:	=9:|!|:	=9:|!|:
.	8qee/	.
8fL 8d\	4.ff\	.
8G\J	.	.
*rep	*	*
8fL 8d\	.	.
8G\J	16gg\LL	.
.	16ff\JJ	.
*Xrep	*	*
*rep	*	*
8fL 8d\	8ee\L	.
8G\J	8ff\J	.
*Xrep	*	*
=10	=10	=10
8eL 8c\	8.gg\L	.
8G\J	.	.
.	16ee\Jk	.
*rep	*	*
8eL 8c\	4ee 4cc\	.
8G\J	.	.
*Xrep	*	*
*rep	*	*
8eL 8c\	4r	.
8G\J	.	.
*Xrep	*	*
=11	=11	=11
.	8qee/	.
8fL 8d\	8ff\	.
8G\J	4ff\	.
*rep	*	*
8fL 8d\	.	.
8G\J	16gg\LL	.
.	16ff\JJ	.
*Xrep	*	*
*rep	*	*
8fL 8d\	8ee\L	.
8G\J	8ff\J	.
*Xrep	*	*
=12	=12	=12
8eL 8c\	8cccL 8ee\	.
8G\J	8ddd 8ff\	.
*rep	*	*
8eL 8c\	8eee 8gg\	.
8G\J	8dddJ 8ff\	.
*Xrep	*	*
4e 4c\	4ccc 4ee\	.
=13:|!|:	=13:|!|:	=13:|!|:
!	!LO:TX:b:i:t=Dall Segno	!
2.ryy	2.ryy	.
=14	=14	=14
*clefF4	*clefG2	*
*M3/4	*	*
*clefG2	*	*
!LO:TX:a:t=P:problem=w taktach 14-16 prawdopodobnie powinno być tremolando	!LO:TX:a:t=P:problem=w taktach 14-16 prawdopodobnie powinno być tremolando	!
!LO:TX:a:t=P:problem=klucz basowy przed metrum	!LO:TX:a:i:t=Trio	!
!LO:TX:a:t=P:problem=tremolando z czarnymi główkami. Brak kropki przy 8g	!LO:TX:a:t=P:problem=napis Trio na górnej pięciolinii przed kluczem	!
8eL 8c/	16gg\LL	.
.	16ccc\J	.
8g/	8cccT>\J	.
8e 8c/	4.eee\	.
8g/	.	.
8e 8c/	.	.
8g/J	8ccc\	.
=15	=15	=15
!LO:TX:a:t=P:problem=tremolando z czarnymi główkami	!	!
8fL 8d/	16bb\LL	.
.	16ccc\J	.
8g/	8dddT>\J	.
8f 8d/	4.ddd\	.
8g/	.	.
8f 8d/	.	.
8g/J	8ddd\	.
=16	=16	=16
!LO:TX:a:t=P:problem=tremolando z czarnymi główkami. Brak kropki przy 8g	!	!
8eL 8c/	16gg\LL	.
.	16ccc\J	.
8g/	8cccT>\J	.
8e 8c/	4.eee\	.
8g/	.	.
8e 8c/	.	.
8g/J	8ccc\	.
=17	=17	=17
8dL 8G/	16bb\LL	.
.	16fff\	.
8g/J	16fff\	.
.	16bb\JJ	.
!!LO:LB:g=original
4f 4d 4G/	4ddd\	.
4e 4c/	4ccc\	.
=18:|!|:	=18:|!|:	=18:|!|:
*clefF4	*	*
!LO:TX:a:t=P:problem=mixed beam	!	!
8GG/L	8ff 8dd\	.
8G\J	4ff 4dd\	.
*rep	*	*
!LO:TX:a:t=P:problem=mixed beam	!	!
8GG/L	.	.
8G\J	(>16eeLL 16cc\	.
.	16ffJJ 16dd\)	.
*Xrep	*	*
*rep	*	*
!LO:TX:a:t=P:problem=mixed beam	!	!
8GG/L	8ggL 8ee\	.
8G\J	8ffJ 8dd\	.
*Xrep	*	*
=19	=19	=19
!LO:TX:a:t=P:problem=mixed beam	!	!
8CC/L	8eeL 8cc\	.
8C\J	8ggJ 8ee\	.
*rep	*	*
!LO:TX:a:t=P:problem=mixed beam	!	!
8CC/L	8aaL 8ff\	.
8C\J	8ggJ 8ee\	.
*Xrep	*	*
*rep	*	*
!LO:TX:a:t=P:problem=mixed beam	!	!
8CC/L	8ffL 8dd\	.
8C\J	8eeJ 8cc\	.
*Xrep	*	*
=20	=20	=20
!LO:TX:a:t=P:problem=mixed beam	!	!
8GG/L	8ff 8dd\	.
8G\J	4ff 4dd\	.
*rep	*	*
!LO:TX:a:t=P:problem=mixed beam	!	!
8GG/L	.	.
8G\J	16eeLL 16cc\	.
.	16ffJJ 16dd\	.
*Xrep	*	*
*rep	*	*
!LO:TX:a:t=P:problem=mixed beam	!	!
8GG/L	16ggLL 16ee\	.
.	16ff 16dd\	.
8G\J	16ee 16cc\	.
.	16ddJJ 16b\	.
*Xrep	*	*
=21	=21	=21
8C\L	8eeL 8cc\	.
8E\J	8ggJ 8ee\	.
8F\L	8ffL 8dd\	.
8F#X\J	8eeJ 8cc\	.
!LO:TX:a:t=P:problem=mixed beam	!	!
8G\L	4dd 4b\	.
8GG/J	.	.
!	!LO:TX:a:t=P:problem=napis za kreską taktową	!
!	!LO:TX:a:i:t=Trio Da Capo	!
==	==	==
*-	*-	*-
!!!system-decoration: {(s1,s2)}
!!!RDF**kern: > = above
!!!RDF**kern: < = below
!!!EED: Mateusz Mrugas
!!!EEV: 2020-12-12
!!!ENC: Anastazja Marusiak
!!!END: 2020-06-17
!!!YEC: Copyright 2022 Narodowy Instytut Fryderyka Chopina (https://polishscores.org)
!!!YEM: License CC-BY-4.0 (https://creativecommons.org/licenses/by/4.0)
